X:15738
T:Sonny Brogan's Mazurka
R:mazurka
D:Bobby Gardiner: His Master's Choice
D:Stockton's Wing
Z:id:hn-mazurka-3
M:3/4
K:D
DF|A2 AG FA|d2 dA BA|G2 GB AG|FG EF DF|A2 AG FA|d2 dA BA|~G3a fe|d4:|
|:Ad|f2 fa gf|e2 eg fe|d2 df ed|cd Bc Ad|f2 fa gf|e2 eg fe|dc df ec|d4:|
